X:1
T:4 Endecasillabi a 4 voci
T:Velthur Tognoni
T:Dante Alighieri
T:4 Endecasillabi a 4 voci
C:Velthur Tognoni
Z:Dante Alighieri
%%score [ 1 2 3 4 ]
L:1/8
Q:1/2=70
M:4/4
K:G
V:1 treble nm="Soprani I" snm="Soprani I"
V:2 treble nm="Soprani II" snm="Soprani II"
V:3 treble nm="Contralti" snm="Contralti"
V:4 treble-8 transpose=-12 nm="Uomini" snm="Uomini"
V:1
 d4 c6 d2 g2 f2 g4 (f2 FG) (_B2 =B6) A8 G12 !fermata!d4 | %1
 B6 _B2 (GF f2) g4 f2 g2 d2 c6 d8 G12 !fermata!A8 | %2
 B4 c6 B2 F2 G2 F4 (G2 g=f) (_d2 =d6) e8 ^f12 !fermata!c4 | %3
 d6 _e2 (ga A2) G4 A2 G2 c2 d6 c8 g12 !fermata!=f8 |] %4
V:2
 (d2 c2) (B2 A2) (G2 B2) (c2 d2) (e2 f2) (e2 d2) e4 d4 c4 B8 !fermata!A12 | %1
 B4 A4 G6 A2 c2 c2 G4 A2 G2 B12 c8 !fermata!d8 | B6 c2 d4 c4 (g2 f2) d4 e2 f2 d8 B12 !fermata!A8 | %3
 c4 d4 e6 d2 B2 B2 e4 (d2 e2) c12 B8 !fermata!A8 |] %4
V:3
 G6 A2 B4 A4 (e2 d2) B4 c2 d2 B8 G12 !fermata!=F8 | %1
 G12 A8 B4 c4 d4 (c2 d2) (e2 d2) (c2 B2) (A2 F2) (G2 A2) (B2 !fermata!c2) | %2
 G4 A4 B6 A2 G2 A2 G4 (B2 A2) G12 E8 !fermata!D8 | %3
 B6 A2 G4 A4 (D2 E2) G4 F2 E2 G8 B12 !fermata!c8 |] %4
V:4
 F4 F4 E6 F2 G2 F2 G4 (E2 F2) G12 B8 !fermata!c8 | %1
 G6 A2 B4 A4 (e2 d2) B4 c2 d2 B8 G12 !fermata!=F8 | %2
 G4 A4 B4 (A2 B2) (c2 B2) (A2 G2) (F2 D2) (E2 F2) (G2 A2) E12 !fermata!=F8 | %3
 (c2 B2) (A2 G2) c12 B8 A4 G4 F4 (G2 F2) (E2 F2) (G2 A2) (B2 !fermata!d2) |] %4

